SF_Symbols/aqi.high.svg

<?xml version="1.0" encoding="UTF-8"?>
<svg xmlns="http://www.w3.org/2000/svg" xmlns:xlink="http://www.w3.org/1999/xlink" width="24" height="24" viewBox="0 0 24 24" version="1.1">
<g id="surface1">
<path style=" stroke:none;fill-rule:nonzero;fill:rgb(100%,100%,100%);fill-opacity:1;" d="M 10.292969 3.105469 C 10.628906 3.105469 10.90625 2.992188 11.132812 2.769531 C 11.359375 2.542969 11.472656 2.265625 11.472656 1.9375 C 11.472656 1.609375 11.355469 1.332031 11.125 1.105469 C 10.898438 0.875 10.621094 0.757812 10.292969 0.757812 C 9.980469 0.757812 9.707031 0.875 9.472656 1.105469 C 9.242188 1.339844 9.125 1.617188 9.125 1.9375 C 9.125 2.257812 9.238281 2.535156 9.464844 2.769531 C 9.695312 2.992188 9.972656 3.105469 10.292969 3.105469 Z M 6.035156 5.570312 C 6.367188 5.570312 6.644531 5.457031 6.867188 5.230469 C 7.09375 5.007812 7.207031 4.726562 7.207031 4.394531 C 7.207031 4.066406 7.09375 3.789062 6.867188 3.5625 C 6.640625 3.335938 6.363281 3.222656 6.035156 3.222656 C 5.714844 3.222656 5.4375 3.339844 5.207031 3.570312 C 4.980469 3.796875 4.867188 4.070312 4.867188 4.394531 C 4.867188 4.71875 4.980469 5 5.207031 5.230469 C 5.429688 5.457031 5.707031 5.570312 6.035156 5.570312 Z M 14.5625 5.570312 C 14.894531 5.570312 15.171875 5.457031 15.394531 5.230469 C 15.617188 5.007812 15.730469 4.726562 15.730469 4.394531 C 15.730469 4.066406 15.617188 3.789062 15.394531 3.5625 C 15.167969 3.335938 14.890625 3.222656 14.5625 3.222656 C 14.242188 3.222656 13.964844 3.339844 13.730469 3.570312 C 13.507812 3.796875 13.394531 4.070312 13.394531 4.394531 C 13.394531 4.71875 13.507812 5 13.730469 5.230469 C 13.957031 5.457031 14.234375 5.570312 14.5625 5.570312 Z M 1.777344 8.0625 C 2.105469 8.0625 2.382812 7.949219 2.605469 7.722656 C 2.832031 7.496094 2.945312 7.21875 2.945312 6.882812 C 2.945312 6.5625 2.832031 6.289062 2.597656 6.0625 C 2.371094 5.832031 2.097656 5.714844 1.777344 5.714844 C 1.457031 5.714844 1.179688 5.832031 0.945312 6.0625 C 0.714844 6.289062 0.597656 6.5625 0.597656 6.882812 C 0.597656 7.210938 0.710938 7.492188 0.9375 7.722656 C 1.167969 7.949219 1.449219 8.0625 1.777344 8.0625 Z M 10.292969 8.394531 C 10.71875 8.394531 11.074219 8.246094 11.367188 7.957031 C 11.65625 7.664062 11.804688 7.304688 11.804688 6.882812 C 11.804688 6.472656 11.65625 6.121094 11.355469 5.832031 C 11.066406 5.53125 10.710938 5.382812 10.292969 5.382812 C 10.027344 5.382812 9.777344 5.453125 9.542969 5.589844 C 9.320312 5.726562 9.136719 5.910156 9 6.144531 C 8.863281 6.367188 8.792969 6.617188 8.792969 6.882812 C 8.792969 7.300781 8.941406 7.65625 9.230469 7.957031 C 9.53125 8.246094 9.882812 8.394531 10.292969 8.394531 Z M 18.792969 8.0625 C 19.121094 8.0625 19.398438 7.949219 19.625 7.722656 C 19.851562 7.496094 19.964844 7.21875 19.964844 6.882812 C 19.964844 6.554688 19.851562 6.28125 19.625 6.054688 C 19.398438 5.828125 19.121094 5.714844 18.792969 5.714844 C 18.472656 5.714844 18.195312 5.832031 17.964844 6.0625 C 17.730469 6.292969 17.617188 6.570312 17.617188 6.882812 C 17.617188 7.210938 17.730469 7.492188 17.957031 7.722656 C 18.1875 7.949219 18.46875 8.0625 18.792969 8.0625 Z M 6.035156 10.855469 C 6.457031 10.855469 6.8125 10.710938 7.097656 10.417969 C 7.390625 10.128906 7.535156 9.773438 7.535156 9.355469 C 7.535156 8.941406 7.386719 8.585938 7.089844 8.292969 C 6.796875 8.003906 6.445312 7.855469 6.035156 7.855469 C 5.761719 7.855469 5.511719 7.925781 5.285156 8.0625 C 5.058594 8.199219 4.878906 8.382812 4.742188 8.605469 C 4.605469 8.832031 4.535156 9.082031 4.535156 9.355469 C 4.535156 9.769531 4.679688 10.121094 4.972656 10.417969 C 5.265625 10.710938 5.617188 10.855469 6.035156 10.855469 Z M 14.5625 10.855469 C 14.984375 10.855469 15.339844 10.710938 15.625 10.417969 C 15.917969 10.128906 16.0625 9.773438 16.0625 9.355469 C 16.0625 8.941406 15.914062 8.585938 15.617188 8.292969 C 15.324219 8.003906 14.972656 7.855469 14.5625 7.855469 C 14.289062 7.855469 14.039062 7.925781 13.8125 8.0625 C 13.585938 8.199219 13.40625 8.382812 13.269531 8.605469 C 13.132812 8.832031 13.0625 9.082031 13.0625 9.355469 C 13.0625 9.769531 13.207031 10.121094 13.5 10.417969 C 13.792969 10.710938 14.144531 10.855469 14.5625 10.855469 Z M 1.777344 13.007812 C 2.105469 13.007812 2.382812 12.894531 2.605469 12.667969 C 2.832031 12.445312 2.945312 12.167969 2.945312 11.839844 C 2.945312 11.511719 2.832031 11.234375 2.597656 11.007812 C 2.371094 10.78125 2.097656 10.667969 1.777344 10.667969 C 1.457031 10.667969 1.179688 10.785156 0.945312 11.019531 C 0.714844 11.242188 0.597656 11.519531 0.597656 11.839844 C 0.597656 12.167969 0.710938 12.445312 0.9375 12.667969 C 1.167969 12.894531 1.449219 13.007812 1.777344 13.007812 Z M 10.292969 13.554688 C 10.617188 13.554688 10.90625 13.480469 11.160156 13.332031 C 11.421875 13.175781 11.632812 12.96875 11.785156 12.707031 C 11.941406 12.445312 12.019531 12.15625 12.019531 11.839844 C 12.019531 11.523438 11.941406 11.238281 11.785156 10.980469 C 11.632812 10.71875 11.421875 10.511719 11.160156 10.355469 C 10.898438 10.203125 10.609375 10.125 10.292969 10.125 C 9.984375 10.125 9.699219 10.203125 9.4375 10.355469 C 9.179688 10.511719 8.972656 10.71875 8.8125 10.980469 C 8.65625 11.242188 8.582031 11.53125 8.582031 11.839844 C 8.582031 12.15625 8.65625 12.445312 8.8125 12.707031 C 8.96875 12.960938 9.175781 13.167969 9.4375 13.320312 C 9.699219 13.476562 9.984375 13.554688 10.292969 13.554688 Z M 19.867188 12.304688 C 19.929688 12.144531 19.964844 11.988281 19.964844 11.839844 C 19.964844 11.511719 19.851562 11.234375 19.625 11.007812 C 19.398438 10.78125 19.121094 10.667969 18.792969 10.667969 C 18.472656 10.667969 18.195312 10.785156 17.964844 11.019531 C 17.730469 11.242188 17.617188 11.519531 17.617188 11.839844 C 17.617188 11.988281 17.648438 12.140625 17.714844 12.292969 C 18.058594 12.128906 18.417969 12.042969 18.792969 12.042969 C 19.167969 12.042969 19.527344 12.132812 19.867188 12.304688 Z M 6.035156 15.820312 C 6.453125 15.820312 6.804688 15.675781 7.097656 15.382812 C 7.390625 15.09375 7.535156 14.738281 7.535156 14.320312 C 7.535156 13.90625 7.386719 13.550781 7.089844 13.257812 C 6.796875 12.960938 6.445312 12.8125 6.035156 12.8125 C 5.761719 12.8125 5.511719 12.882812 5.285156 13.027344 C 5.058594 13.164062 4.878906 13.34375 4.742188 13.570312 C 4.605469 13.796875 4.535156 14.046875 4.535156 14.320312 C 4.535156 14.730469 4.679688 15.085938 4.972656 15.382812 C 5.269531 15.675781 5.625 15.820312 6.035156 15.820312 Z M 14.5625 15.820312 C 14.800781 15.820312 15.019531 15.769531 15.222656 15.660156 L 16.042969 14.179688 L 16.042969 14.132812 C 16.003906 13.765625 15.839844 13.453125 15.554688 13.195312 C 15.273438 12.941406 14.945312 12.8125 14.5625 12.8125 C 14.152344 12.8125 13.796875 12.960938 13.5 13.257812 C 13.207031 13.554688 13.0625 13.910156 13.0625 14.320312 C 13.0625 14.730469 13.207031 15.085938 13.5 15.382812 C 13.796875 15.675781 14.152344 15.820312 14.5625 15.820312 Z M 1.777344 17.964844 C 2.105469 17.964844 2.382812 17.851562 2.605469 17.625 C 2.832031 17.398438 2.945312 17.117188 2.945312 16.785156 C 2.945312 16.464844 2.832031 16.191406 2.597656 15.964844 C 2.371094 15.730469 2.097656 15.617188 1.777344 15.617188 C 1.457031 15.617188 1.179688 15.730469 0.945312 15.964844 C 0.714844 16.195312 0.597656 16.46875 0.597656 16.785156 C 0.597656 17.113281 0.710938 17.394531 0.9375 17.625 C 1.167969 17.851562 1.449219 17.964844 1.777344 17.964844 Z M 10.292969 18.292969 C 10.71875 18.292969 11.074219 18.148438 11.367188 17.855469 C 11.65625 17.566406 11.804688 17.207031 11.804688 16.785156 C 11.804688 16.375 11.65625 16.023438 11.355469 15.730469 C 11.066406 15.433594 10.710938 15.285156 10.292969 15.285156 C 10.027344 15.285156 9.777344 15.355469 9.542969 15.492188 C 9.320312 15.628906 9.136719 15.8125 9 16.042969 C 8.863281 16.269531 8.792969 16.519531 8.792969 16.785156 C 8.792969 17.203125 8.941406 17.558594 9.230469 17.855469 C 9.53125 18.148438 9.882812 18.292969 10.292969 18.292969 Z M 6.035156 20.457031 C 6.367188 20.457031 6.644531 20.34375 6.867188 20.117188 C 7.09375 19.890625 7.207031 19.613281 7.207031 19.285156 C 7.207031 18.957031 7.09375 18.679688 6.867188 18.445312 C 6.640625 18.21875 6.363281 18.105469 6.035156 18.105469 C 5.714844 18.105469 5.4375 18.222656 5.207031 18.457031 C 4.980469 18.6875 4.867188 18.964844 4.867188 19.285156 C 4.867188 19.605469 4.980469 19.882812 5.207031 20.105469 C 5.429688 20.339844 5.707031 20.457031 6.035156 20.457031 Z M 10.292969 22.910156 C 10.628906 22.910156 10.90625 22.796875 11.132812 22.570312 C 11.359375 22.351562 11.472656 22.074219 11.472656 21.742188 C 11.472656 21.414062 11.355469 21.136719 11.125 20.910156 C 10.898438 20.683594 10.621094 20.570312 10.292969 20.570312 C 9.980469 20.570312 9.707031 20.683594 9.472656 20.910156 C 9.242188 21.144531 9.125 21.417969 9.125 21.742188 C 9.125 22.070312 9.238281 22.34375 9.464844 22.570312 C 9.695312 22.796875 9.972656 22.910156 10.292969 22.910156 Z M 14.917969 22.582031 L 22.652344 22.582031 C 23.019531 22.582031 23.316406 22.464844 23.535156 22.230469 C 23.757812 22.007812 23.867188 21.722656 23.867188 21.382812 C 23.867188 21.175781 23.808594 20.976562 23.695312 20.785156 L 19.820312 13.875 C 19.707031 13.671875 19.554688 13.519531 19.367188 13.417969 C 19.179688 13.320312 18.992188 13.269531 18.792969 13.269531 C 18.585938 13.269531 18.386719 13.320312 18.195312 13.417969 C 18.007812 13.519531 17.855469 13.671875 17.75 13.875 L 13.882812 20.792969 C 13.769531 20.980469 13.714844 21.175781 13.714844 21.382812 C 13.714844 21.722656 13.820312 22.007812 14.035156 22.230469 C 14.257812 22.464844 14.550781 22.582031 14.917969 22.582031 Z M 18.785156 21.222656 C 18.582031 21.222656 18.40625 21.148438 18.257812 21 C 18.109375 20.851562 18.035156 20.671875 18.035156 20.464844 C 18.035156 20.261719 18.109375 20.085938 18.257812 19.9375 C 18.40625 19.789062 18.582031 19.714844 18.785156 19.714844 C 19 19.714844 19.179688 19.789062 19.320312 19.9375 C 19.46875 20.085938 19.542969 20.261719 19.542969 20.464844 C 19.542969 20.671875 19.46875 20.851562 19.320312 21 C 19.171875 21.148438 18.992188 21.222656 18.785156 21.222656 Z M 18.792969 19.089844 C 18.632812 19.089844 18.503906 19.042969 18.402344 18.945312 C 18.304688 18.851562 18.257812 18.726562 18.25 18.570312 L 18.179688 16.027344 C 18.171875 15.84375 18.226562 15.695312 18.339844 15.582031 C 18.453125 15.46875 18.605469 15.410156 18.792969 15.410156 C 18.980469 15.410156 19.128906 15.46875 19.242188 15.582031 C 19.355469 15.695312 19.40625 15.84375 19.402344 16.027344 L 19.332031 18.570312 C 19.324219 18.726562 19.269531 18.851562 19.167969 18.945312 C 19.074219 19.042969 18.949219 19.089844 18.792969 19.089844 Z M 18.792969 19.089844 "/>
</g>
</svg>

<svg xmlns="http://www.w3.org/2000/svg" width="24" height="24"><path style="stroke:none;fill-rule:nonzero;fill:#fff;fill-opacity:1" d="M10.293 3.105c.336 0 .613-.113.84-.335.226-.227.34-.504.34-.833 0-.328-.118-.605-.348-.832a1.13 1.13 0 0 0-.832-.347c-.313 0-.586.117-.82.347-.23.235-.348.512-.348.833a1.157 1.157 0 0 0 1.168 1.168ZM6.035 5.57c.332 0 .61-.113.832-.34.227-.222.34-.503.34-.835 0-.329-.113-.606-.34-.832a1.129 1.129 0 0 0-.832-.34c-.32 0-.598.117-.828.347-.227.227-.34.5-.34.825 0 .324.113.605.34.835.223.227.5.34.828.34Zm8.527 0c.333 0 .61-.113.833-.34a1.14 1.14 0 0 0 .335-.835c0-.329-.113-.606-.335-.832a1.129 1.129 0 0 0-.832-.34c-.32 0-.598.117-.833.347-.222.227-.335.5-.335.825 0 .324.113.605.335.835.227.227.504.34.832.34ZM1.777 8.062c.328 0 .606-.113.828-.34.227-.226.34-.503.34-.84 0-.32-.113-.593-.347-.82a1.104 1.104 0 0 0-.82-.347c-.321 0-.598.117-.833.348-.23.226-.347.5-.347.82 0 .328.113.61.34.84.23.226.511.34.84.34Zm8.516.333c.402.007.793-.153 1.074-.438.29-.293.438-.652.438-1.074 0-.41-.149-.762-.45-1.051-.289-.3-.644-.45-1.062-.45-.266 0-.516.071-.75.208-.223.137-.406.32-.543.555a1.405 1.405 0 0 0-.207.738 1.498 1.498 0 0 0 1.5 1.512Zm8.5-.332c.328 0 .605-.114.832-.34.227-.227.34-.504.34-.84 0-.328-.113-.602-.34-.828a1.129 1.129 0 0 0-.832-.34c-.32 0-.598.117-.828.348-.235.23-.348.507-.348.82 0 .328.113.61.34.84.23.226.512.34.836.34ZM6.035 10.854c.422 0 .777-.144 1.063-.437.293-.29.437-.645.437-1.063 0-.414-.148-.77-.445-1.062a1.445 1.445 0 0 0-1.055-.438c-.273 0-.523.07-.75.207-.226.137-.406.32-.543.543a1.4 1.4 0 0 0-.207.75c0 .415.145.766.438 1.063.293.293.644.437 1.062.437Zm8.527 0c.422 0 .778-.144 1.063-.437.293-.29.438-.645.438-1.063 0-.414-.149-.77-.446-1.062a1.452 1.452 0 0 0-1.055-.438c-.273 0-.523.07-.75.207-.226.137-.406.32-.542.543a1.436 1.436 0 0 0-.207.75c0 .415.144.766.437 1.063.293.293.645.437 1.063.437ZM1.777 13.008c.328 0 .606-.113.828-.34.227-.223.34-.5.34-.828a1.115 1.115 0 0 0-.347-.832c-.227-.227-.5-.34-.82-.34-.321 0-.598.117-.833.352-.23.222-.347.5-.347.82 0 .328.113.605.34.828.23.227.511.34.84.34Zm8.516.547a1.681 1.681 0 0 0 1.492-.848c.156-.262.238-.562.235-.867 0-.317-.079-.602-.235-.86a1.774 1.774 0 0 0-.625-.625 1.687 1.687 0 0 0-.867-.23c-.309 0-.594.078-.855.23a1.774 1.774 0 0 0-.626.625c-.156.262-.23.551-.23.86 0 .316.074.605.23.867.157.254.364.461.626.613.261.157.546.235.855.235Zm9.574-1.25a1.27 1.27 0 0 0 .098-.465c0-.328-.113-.606-.34-.832a1.129 1.129 0 0 0-.832-.34c-.32 0-.598.117-.828.352a1.09 1.09 0 0 0-.348.82c0 .148.031.3.098.453.344-.164.703-.25 1.078-.25.375 0 .734.09 1.074.262ZM6.035 15.82c.418 0 .77-.144 1.063-.437.293-.29.437-.645.437-1.063 0-.414-.148-.77-.445-1.062a1.431 1.431 0 0 0-1.055-.445c-.273 0-.523.07-.75.214a1.57 1.57 0 0 0-.543.543 1.41 1.41 0 0 0-.207.75c0 .41.145.766.438 1.063a1.47 1.47 0 0 0 1.062.437Zm8.527 0c.239 0 .458-.05.66-.16l.821-1.48v-.047c-.04-.363-.211-.7-.488-.938a1.437 1.437 0 0 0-.992-.383c-.41 0-.766.149-1.063.446a1.47 1.47 0 0 0-.438 1.062c0 .41.145.766.438 1.063a1.47 1.47 0 0 0 1.063.437ZM1.777 17.965c.328 0 .606-.113.828-.34.227-.227.34-.508.34-.84 0-.32-.113-.594-.347-.82a1.098 1.098 0 0 0-.82-.348c-.321 0-.598.113-.833.348-.23.23-.347.504-.347.82 0 .328.113.61.34.84.23.227.511.34.84.34Zm8.516.328c.426 0 .781-.145 1.074-.438.29-.289.438-.648.438-1.07 0-.41-.149-.762-.45-1.055a1.42 1.42 0 0 0-1.062-.445c-.266 0-.516.07-.75.207-.223.137-.406.32-.543.551-.137.223-.207.48-.207.742 0 .418.148.774.437 1.07.301.293.653.438 1.063.438Zm-4.258 2.164c.332 0 .61-.113.832-.34.227-.226.34-.504.34-.832a1.163 1.163 0 0 0-1.172-1.18c-.32 0-.598.118-.828.352-.227.23-.34.508-.34.828 0 .32.113.598.34.82.223.235.5.352.828.352Zm4.258 2.453c.336 0 .613-.113.84-.34.226-.218.34-.496.34-.828 0-.328-.118-.605-.348-.832a1.129 1.129 0 0 0-.832-.34c-.313 0-.586.114-.82.34-.23.235-.348.508-.348.832 0 .328.113.602.34.828.23.227.508.34.828.34Zm4.625-.328h7.734c.368 0 .664-.117.883-.352.223-.222.332-.507.332-.847a1.193 1.193 0 0 0-.172-.598l-3.875-6.91a1.159 1.159 0 0 0-.453-.457c-.367-.2-.808-.2-1.172 0-.187.102-.34.254-.445.457l-3.867 6.918c-.11.176-.168.383-.168.59 0 .34.105.625.32.847.223.235.516.352.883.352Zm3.867-1.36c-.2 0-.39-.077-.527-.222a.726.726 0 0 1-.223-.535c0-.2.078-.39.223-.527a.723.723 0 0 1 .527-.223c.215 0 .395.074.535.223a.723.723 0 0 1 .223.527.726.726 0 0 1-.223.535.726.726 0 0 1-.535.223Zm.008-2.132a.535.535 0 0 1-.39-.145.539.539 0 0 1-.153-.375l-.07-2.543a.556.556 0 0 1 .16-.445.611.611 0 0 1 .453-.172c.187 0 .336.059.45.172a.584.584 0 0 1 .16.445l-.071 2.543c0 .14-.062.278-.164.375a.494.494 0 0 1-.375.145Zm0 0"/></svg>
